X: 3
T: Devils Of Dublin
R: reel
M: 4/4
L: 1/8
K: Dmaj
|Adde Adfd|(3efe df efgf||a2ag effe|dcBA BAFB|ABde fAac|1 dBAG FDDf:|2 dBAG FDFA||


Tune 538	Setting 26679

